X:1
T:Shepherds, LM
T:Shepherds, LM
T:Anonymous, 1883
T:Public Domain Courtesy of the Cyber Hymnal™
C:Anonymous, 1883
Z:Public Domain
Z:Courtesy of the Cyber Hymnal™
%%score ( 1 2 ) ( 3 4 )
L:1/8
Q:1/4=125
M:3/4
K:Bb
V:1 treble 
V:2 treble 
V:3 bass 
V:4 bass 
V:1
 [DF]2 [DF]2 [DF]2 | [DG]4 [EG]2 | (A2 G2) [EF]2 | [DF]6 | [Fd]2 [FB]2 [EA]2 | [DG]4 F2 | %6
 G4 [=EG]2 | F6 | [DG]2 [DG]2 [DG]2 | [EG]4 [EA]2 | (A2 G2) [EF]2 | [Dd]6 | [Fd]2 [FB]2 [^FA]2 | %13
 G4 [EF]2 | [DF]4 G2 | [FB]6 |] %16
V:2
 x6 | x6 | E4 x2 | x6 | x6 | x4 F2 | (F2 D2) x2 | F6 | x6 | x6 | E4 x2 | x6 | x6 | (G2 E2) x2 | %14
 x4 G2 | x6 |] %16
V:3
 [B,,B,]2 [B,,B,]2 [B,,B,]2 | [B,,G,]4 [C,C]2 | (C2 B,2) [F,A,]2 | [B,,B,]6 | B,2 [B,D]2 [F,C]2 | %5
 [G,B,]4 [A,C]2 | [C,C]4 [C,B,]2 | [F,A,]6 | [F,=B,]2 [F,B,]2 [F,B,]2 | [E,C]4 [C,C]2 | %10
 (C2 B,2) [F,A,]2 | [B,,B,]6 | [B,,F,]2 [B,,D]2 [D,C]2 | [E,B,]4 [F,A,]2 | B,4 [E,B,]2 | [B,,D]6 |] %16
V:4
 x6 | x6 | F,4 x2 | x6 | B,2 x4 | x6 | x6 | x6 | x6 | x6 | F,4 x2 | x6 | x6 | x6 | B,4 x2 | x6 |] %16

